assets/home/riot.svg

<svg width="38" height="34" viewBox="0 0 38 34" fill="none" xmlns="http://www.w3.org/2000/svg">
<g clip-path="url(#clip0_46_148)">
<path d="M36.9597 18.6011C36.9597 18.6908 36.9597 18.8706 36.9597 18.9604C36.8699 19.2299 36.6902 19.4994 36.6003 19.7689C36.3309 20.0384 36.0614 20.3977 35.7919 20.6672C34.085 22.2842 32.1087 23.4521 29.8628 24.2605C29.7731 24.2605 29.6832 24.3504 29.5933 24.4403C29.1441 25.0691 28.7849 25.7878 28.3357 26.4166C27.617 27.4946 26.8085 28.5726 25.9101 29.4709C24.4728 30.9083 22.9457 32.166 21.149 33.0643C20.8795 33.0643 20.6997 33.0643 20.4303 33.0643C20.2506 32.9744 19.9812 32.9744 19.8014 32.8847C18.9031 32.5253 18.1844 31.9862 17.5556 31.3574C16.9268 30.7286 16.2979 30.01 15.759 29.3812C15.4895 29.0218 15.1301 28.7522 14.6809 28.6625C14.2317 28.5726 13.7826 28.4827 13.3334 28.3031C12.6147 28.1234 11.8961 27.8539 11.1774 27.6743C10.7282 27.4946 10.4587 27.2251 10.3689 26.776C10.3689 26.5962 10.2791 26.5064 10.1892 26.3268C9.65023 24.7996 9.20106 23.2724 8.48239 21.8351C7.40438 19.4095 6.05688 17.1637 4.5297 15.0077C3.54154 13.6602 2.55336 12.3127 1.47535 10.9651C1.29568 10.7855 1.11602 10.516 1.02618 10.3363V10.2465C1.11602 10.2465 1.11602 10.2465 1.20585 10.1566C2.01436 9.70748 2.82285 9.34815 3.54153 8.98881C4.5297 8.53964 5.42804 8.09046 6.23654 7.46163C7.76372 6.29379 9.2909 5.03612 10.6384 3.59878C11.6266 2.6106 12.5249 1.5326 13.4233 0.45459C13.4233 0.45459 13.5131 0.45459 13.5131 0.544424C15.759 2.16143 18.0048 3.68861 20.2506 5.30562C20.3405 5.39546 20.4303 5.39546 20.5201 5.30562C21.3287 4.67679 22.1371 4.13778 22.9457 3.50895C23.7541 2.8801 24.6525 2.25126 25.461 1.71226C25.5509 1.71226 25.5509 1.8021 25.6406 1.8021C28.695 3.86828 31.7493 5.84463 34.8037 7.9108C34.8936 8.00063 34.8936 8.09046 34.8936 8.18031C34.6241 8.89898 34.2647 9.61764 33.9953 10.3363C33.8155 10.7855 33.7257 11.2347 33.7257 11.6838C33.7257 12.7619 33.9953 13.8398 34.4444 14.828C34.8037 15.6365 35.3427 16.2654 35.7919 16.9841C36.2411 17.4332 36.6902 17.9722 36.9597 18.6011ZM18.9031 24.1708C18.9031 24.0809 18.8132 24.0809 18.8132 24.0809C18.1844 23.3622 17.6455 22.4639 17.2861 21.5656C16.6573 20.1282 16.2979 18.6908 16.0284 17.1637C15.9386 16.5349 15.8487 15.8162 15.759 15.1873C15.8487 15.2772 15.8487 15.2772 15.8487 15.367C16.2979 16.8942 16.9268 18.4213 17.6455 19.8587C18.3641 21.2063 19.1726 22.4639 20.1608 23.542C20.2506 23.6317 20.3405 23.7216 20.4303 23.6317C21.4184 23.3622 22.4066 23.0029 23.3948 22.7334C23.5745 22.6435 23.7541 22.5538 24.0236 22.4639C23.1253 21.3859 22.3169 20.3078 21.8676 19.0502C21.4184 17.7925 21.149 16.445 21.149 15.0976C21.149 15.1873 21.2388 15.1873 21.2388 15.2772C21.4184 15.7264 21.5982 16.2654 21.7778 16.7146C22.5863 18.6908 23.844 20.3078 25.2813 21.8351C25.2813 21.8351 25.461 21.9248 25.461 21.8351C26 21.6554 26.5389 21.3859 26.9882 21.2063C27.3475 21.0265 27.7967 20.757 28.1561 20.5774C28.1561 20.4876 28.1561 20.4876 28.1561 20.4876C27.1679 19.2299 26.6288 17.7925 26.4492 16.2654C26.3593 15.5467 26.2695 14.9178 26.1797 14.1991C26.1797 14.0195 26.1797 13.8398 26.1797 13.75C26.1797 13.75 26.1797 13.75 26.2695 13.75C26.7187 16.0856 27.7068 18.2417 29.1441 20.1282C29.4137 19.9486 29.6832 19.8587 29.8628 19.679C30.7611 19.2299 31.6596 18.6908 32.3781 18.062C32.8274 17.6129 32.9172 17.4332 32.6477 16.8043C32.5579 16.445 32.3781 16.1755 32.1985 15.8162C31.7493 14.6484 31.2103 13.4806 31.1205 12.2228C31.0307 11.3245 31.1205 10.516 31.4798 9.70748C31.5697 9.61764 31.4798 9.52781 31.3901 9.43798C30.4917 8.7193 29.6832 8.00063 28.7849 7.28196C28.4255 6.92262 27.9763 6.65313 27.5271 6.29379C26.7187 7.19213 26 8.09046 25.1915 8.98881C25.1017 8.89898 25.0118 8.89898 24.9219 8.80914C24.0236 8.27014 23.0354 7.73114 22.1371 7.28196C22.0473 7.19213 21.9575 7.19213 21.8676 7.28196C21.3287 7.73114 20.7896 8.18031 20.3405 8.62947C19.8913 8.98881 19.4421 9.43798 18.993 9.79731C17.1065 8.27014 15.2199 6.74296 13.4233 5.30562C13.3334 5.39546 13.3334 5.48529 13.2435 5.48529C12.6147 6.29379 12.0757 7.1023 11.4469 7.9108C10.7282 8.80914 10.0096 9.79731 9.2909 10.6058C8.66207 11.4143 7.67389 11.7737 6.77555 12.133C6.59588 12.133 6.50605 12.133 6.41622 12.2228C6.50605 12.3127 6.50605 12.4025 6.50605 12.4025C7.22472 13.3907 7.94339 14.3789 8.66207 15.2772C10.2791 17.3434 11.7164 19.4994 12.7046 21.9248C13.0639 22.6435 13.4233 23.3622 13.9622 23.9911C14.4114 24.4403 14.8605 24.7098 15.4895 24.7996C15.8487 24.7996 16.2081 24.7996 16.5674 24.7098C17.376 24.6199 18.0947 24.3504 18.9031 24.1708ZM17.0166 26.3268C18.0947 27.1352 18.993 27.8539 19.9812 28.5726C20.0709 28.6625 20.2506 28.7522 20.4303 28.7522C20.7896 28.7522 21.149 28.5726 21.4184 28.393C22.4066 27.6743 23.4847 26.8657 24.383 25.9674C24.9219 25.4284 25.3711 24.8894 25.5509 24.1708C25.5509 24.0809 25.6406 23.9012 25.6406 23.7216C22.8558 24.7098 19.9812 25.7878 17.0166 26.3268Z" fill="#DCDCDC"/>
</g>
<defs>
<clipPath id="clip0_46_148">
<rect width="37.2" height="33.6" fill="white" transform="translate(0.599976 0.400024)"/>
</clipPath>
</defs>
</svg>

<svg xmlns="http://www.w3.org/2000/svg" width="38" height="34" fill="none" xmlns:v="https://vecta.io/nano"><g clip-path="url(#A)"><path d="M36.96 18.601v.359c-.09.27-.27.539-.359.808-.269.27-.539.629-.808.898-1.707 1.617-3.683 2.785-5.929 3.593-.09 0-.18.09-.27.18-.449.629-.808 1.348-1.258 1.976-.719 1.078-1.527 2.156-2.426 3.054-1.437 1.437-2.964 2.695-4.761 3.593h-.719c-.18-.09-.449-.09-.629-.18-.898-.359-1.617-.899-2.246-1.527l-1.797-1.976c-.27-.359-.629-.629-1.078-.719s-.898-.18-1.348-.359l-2.156-.629c-.449-.18-.719-.449-.809-.898 0-.18-.09-.27-.18-.449-.539-1.527-.988-3.054-1.707-4.492-1.078-2.426-2.426-4.671-3.953-6.827l-3.054-4.043a2.73 2.73 0 0 1-.449-.629v-.09c.09 0 .09 0 .18-.09l2.336-1.168c.988-.449 1.887-.898 2.695-1.527 1.527-1.168 3.054-2.426 4.402-3.863.988-.988 1.886-2.066 2.785-3.144 0 0 .09 0 .09.09l6.737 4.761c.09.09.18.09.27 0l2.426-1.797 2.515-1.797c.09 0 .09.09.18.09l9.163 6.109c.09.09.09.18.09.27l-.898 2.156c-.18.449-.27.898-.27 1.348 0 1.078.27 2.156.719 3.144.359.809.898 1.437 1.347 2.156.449.449.898.988 1.168 1.617zm-18.057 5.57c0-.09-.09-.09-.09-.09-.629-.719-1.168-1.617-1.527-2.515-.629-1.437-.988-2.875-1.258-4.402l-.269-1.976c.09.09.09.09.09.18.449 1.527 1.078 3.054 1.797 4.492.719 1.348 1.527 2.605 2.515 3.683.09.09.18.18.27.09l2.965-.898a4.38 4.38 0 0 1 .629-.27c-.898-1.078-1.707-2.156-2.156-3.414s-.719-2.605-.719-3.953c0 .09.09.09.09.18l.539 1.437c.809 1.976 2.066 3.593 3.504 5.121 0 0 .18.09.18 0 .539-.18 1.078-.449 1.527-.629l1.168-.629v-.09c-.988-1.258-1.527-2.695-1.707-4.222l-.27-2.066v-.449h.09c.449 2.336 1.437 4.492 2.875 6.378.27-.18.539-.27.719-.449.898-.449 1.797-.988 2.515-1.617.449-.449.539-.629.27-1.258-.09-.359-.27-.629-.449-.988-.449-1.168-.988-2.336-1.078-3.593-.09-.898 0-1.707.359-2.515.09-.09 0-.18-.09-.27l-2.605-2.156c-.359-.359-.809-.629-1.258-.988l-2.336 2.695c-.09-.09-.18-.09-.27-.18l-2.785-1.527c-.09-.09-.18-.09-.27 0l-1.527 1.348-1.348 1.168-5.57-4.492c-.09.09-.09.18-.18.18l-1.797 2.426-2.156 2.695c-.629.809-1.617 1.168-2.515 1.527-.18 0-.269 0-.359.09.09.09.09.18.09.18l2.156 2.875c1.617 2.066 3.054 4.222 4.043 6.648.359.719.719 1.437 1.258 2.066.449.449.898.719 1.527.809.359 0 .719 0 1.078-.09.809-.09 1.527-.359 2.336-.539zm-1.886 2.156l2.965 2.246c.09.09.269.18.449.18.359 0 .719-.18.988-.359.988-.719 2.066-1.527 2.965-2.426.539-.539.988-1.078 1.168-1.797 0-.09.09-.27.09-.449-2.785.988-5.659 2.066-8.624 2.605z" fill="#dcdcdc"/></g><defs><clipPath id="A"><path fill="#fff" transform="translate(.6 .4)" d="M0 0h37.2v33.6H0z"/></clipPath></defs></svg>
